src/assets/icons/notification.svg

<svg width="22" height="23" viewBox="0 0 22 23" fill="none" xmlns="http://www.w3.org/2000/svg">
<path d="M8.03809 19.6016C8.03809 20.0599 8.10541 20.8388 8.7026 21.2535C9.2998 21.6682 10.0333 21.8932 10.7881 21.8932C11.5429 21.8932 12.2764 21.6682 12.8736 21.2535C13.4708 20.8388 13.5381 20.0599 13.5381 19.6016" stroke="#637381" stroke-width="1.5" stroke-linecap="round" stroke-linejoin="round"/>
<path d="M4.60076 9.89453C4.60076 6.47727 7.371 3.70703 10.7883 3.70703V2.33203C6.61161 2.33203 3.22576 5.71788 3.22576 9.89453V12.743C3.22576 13.4228 3.00525 14.0844 2.59732 14.6283L2.35618 14.9498C2.10009 15.2913 1.72093 15.894 1.86452 16.6009C2.09334 17.7271 3.0733 18.1262 3.88353 18.272C4.55165 18.3923 5.32744 18.3836 5.94527 18.3766C6.07949 18.3751 6.20628 18.3737 6.32287 18.3737H10.7883V16.9987H6.32287C6.17314 16.9987 6.0228 17.0002 5.87291 17.0016C5.25936 17.0076 4.6532 17.0135 4.12713 16.9188C3.46949 16.8004 3.26506 16.5883 3.212 16.3271C3.20497 16.2925 3.20446 16.2338 3.24312 16.1337C3.28328 16.0297 3.35494 15.9098 3.45618 15.7748L3.69732 15.4533C4.28375 14.6714 4.60076 13.7204 4.60076 12.743V9.89453Z" fill="#637381"/>
<path d="M16.9765 9.89453C16.9765 6.47727 14.2055 3.70703 10.7883 3.70703V2.33203C14.9649 2.33203 18.3515 5.71788 18.3515 9.89453V12.743C18.3515 13.4228 18.572 14.0844 18.9799 14.6283L19.2211 14.9498C19.4772 15.2913 19.8563 15.894 19.7127 16.6009C19.4839 17.7271 18.504 18.1262 17.6937 18.272C17.0256 18.3923 16.2498 18.3836 15.632 18.3766C15.4978 18.3751 15.371 18.3737 15.2544 18.3737H10.7883V16.9987H15.2544C15.4041 16.9987 15.5544 17.0002 15.7043 17.0016C16.3179 17.0076 16.924 17.0135 17.4501 16.9188C18.1078 16.8004 18.3122 16.5883 18.3653 16.3271C18.3723 16.2925 18.3728 16.2338 18.3341 16.1337C18.294 16.0297 18.2223 15.9098 18.1211 15.7748L17.8799 15.4533C17.2935 14.6714 16.9765 13.7204 16.9765 12.743V9.89453Z" fill="#637381"/>
</svg>

<?xml version="1.0" encoding="utf-8"?>
<!-- Generator: Adobe Illustrator 24.1.3, SVG Export Plug-In . SVG Version: 6.00 Build 0)  -->
<svg version="1.1" id="Layer_1" xmlns="http://www.w3.org/2000/svg" xmlns:xlink="http://www.w3.org/1999/xlink" x="0px" y="0px"
	 viewBox="0 0 22 23" style="enable-background:new 0 0 22 23;" xml:space="preserve">
<style type="text/css">
	.st0{fill:#637381;}
</style>
<g>
	<path class="st0" d="M10.8,22.6c-0.9,0-1.8-0.3-2.5-0.8c-0.7-0.5-1-1.2-1-2.3c0-0.4,0.3-0.8,0.8-0.8s0.8,0.3,0.8,0.8
		c0,0.5,0.1,0.9,0.3,1c0.9,0.7,2.4,0.7,3.3,0c0.2-0.2,0.3-0.5,0.3-1c0-0.4,0.3-0.8,0.8-0.8s0.8,0.3,0.8,0.8c0,1-0.3,1.8-1,2.3
		C12.6,22.4,11.7,22.6,10.8,22.6z"/>
</g>
<g>
	<path class="st0" d="M4.6,9.9c0-3.4,2.8-6.2,6.2-6.2V2.3c-4.2,0-7.6,3.4-7.6,7.6v2.8c0,0.7-0.2,1.3-0.6,1.9l-0.2,0.3
		c-0.3,0.3-0.6,0.9-0.5,1.7c0.2,1.1,1.2,1.5,2,1.7c0.7,0.1,1.4,0.1,2.1,0.1c0.1,0,0.3,0,0.4,0h4.5V17H6.3c-0.1,0-0.3,0-0.4,0
		c-0.6,0-1.2,0-1.7-0.1c-0.7-0.1-0.9-0.3-0.9-0.6c0,0,0-0.1,0-0.2c0-0.1,0.1-0.2,0.2-0.4l0.2-0.3c0.6-0.8,0.9-1.7,0.9-2.7V9.9z"/>
</g>
<g>
	<path class="st0" d="M17,9.9c0-3.4-2.8-6.2-6.2-6.2V2.3c4.2,0,7.6,3.4,7.6,7.6v2.8c0,0.7,0.2,1.3,0.6,1.9l0.2,0.3
		c0.3,0.3,0.6,0.9,0.5,1.7c-0.2,1.1-1.2,1.5-2,1.7c-0.7,0.1-1.4,0.1-2.1,0.1c-0.1,0-0.3,0-0.4,0h-4.5V17h4.5c0.1,0,0.3,0,0.4,0
		c0.6,0,1.2,0,1.7-0.1c0.7-0.1,0.9-0.3,0.9-0.6c0,0,0-0.1,0-0.2c0-0.1-0.1-0.2-0.2-0.4l-0.2-0.3c-0.6-0.8-0.9-1.7-0.9-2.7V9.9z"/>
</g>
</svg>
